dist/images/svg/sandwich.svg

<svg width="44" height="44" viewBox="0 0 44 44" xmlns="http://www.w3.org/2000/svg">
<path d="M41.7999 6.59989H40.3333V5.13319C40.3333 3.91821 39.3482 2.93319 38.1333 2.93319H36.3865L35.3253 0.810968C35.0787 0.312358 34.5697 -0.00234463 34.0134 -0.00011025H33C32.1899 -0.00011025 31.5333 0.656538 31.5333 1.46659V2.93328H23.4666C22.2515 2.93328 21.2666 3.91821 21.2666 5.13328V6.59989H19.8C18.585 6.59989 17.6 7.58491 17.6 8.79989V10.2666C17.6 11.0766 18.2566 11.7333 19.0666 11.7333H19.1444L20.0024 19.31L16.4692 18.4799C16.291 18.2057 16.1025 17.9336 15.8928 17.6666L14.6461 12.3008C14.5691 11.969 14.2739 11.734 13.9333 11.7332H9.71957C7.73149 9.98127 5.38187 9.18927 3.60941 9.71066L2.53287 8.53735C2.12605 8.09323 1.48693 7.94722 0.927647 8.17066C0.36742 8.38653 -0.00159544 8.92553 -4.85612e-05 9.52589V41.8146C0.00158425 43.0208 0.979038 43.9983 2.18526 43.9999H38.1333C38.5061 43.9996 38.8193 43.7198 38.8615 43.3494L42.4541 11.7332H42.5333C43.3434 11.7332 44 11.0765 44 10.2665V8.79989C44 7.58491 43.015 6.59989 41.7999 6.59989ZM33 1.46659H34.0134L34.7467 2.93328H33V1.46659ZM22.7333 5.13319C22.7333 4.72817 23.0616 4.39989 23.4666 4.39989H38.1333C38.5383 4.39989 38.8666 4.72817 38.8666 5.13319V6.59989H22.7333V5.13319ZM20.68 20.9732L20.7262 20.982L21.3187 21.1227L21.7162 25.2844C20.5645 24.469 19.1864 24.0346 17.7753 24.0421C18.0469 22.7482 17.9031 21.4017 17.3646 20.1943L20.68 20.9732ZM22.1129 27.4596L22.1224 27.4677C22.388 27.7134 22.6403 27.9734 22.8777 28.2464C23.7502 29.2199 24.3917 30.3778 24.7543 31.6337C24.8783 32.0711 24.9421 32.5233 24.9443 32.9779L18.095 25.5081C19.6184 25.6787 21.0369 26.3677 22.1129 27.4596ZM14.385 18.1397V18.1382C15.9676 19.9569 16.7046 22.1415 16.3548 23.6096L8.89165 15.4733C10.3972 15.1367 12.6866 16.1941 14.385 18.1397ZM13.3466 13.1999L13.9333 15.6969C13.344 15.237 12.7017 14.8495 12.0201 14.5427C11.7429 14.0738 11.4329 13.6251 11.0924 13.1999H13.3466ZM9.66019 13.7455H9.66311C9.72395 13.8152 9.77388 13.8922 9.83249 13.9655C9.14404 13.9021 8.45087 14.0185 7.82095 14.3036L4.80618 11.016C6.28026 11.0373 8.2038 12.0742 9.66019 13.7455ZM30.737 42.1025C30.6235 42.3636 30.3661 42.5328 30.0813 42.5333H23.4666H2.18526C1.78831 42.5333 1.46656 42.2115 1.46656 41.8146L1.45333 9.53328L16.1721 25.5815V25.5852L24.8166 35.0093L24.8262 35.0203L29.568 40.1917C29.5848 40.2137 29.6024 40.2357 29.6215 40.257L30.6049 41.3291C30.7987 41.5377 30.8506 41.8413 30.737 42.1025ZM26.1976 34.3448C26.3318 33.9069 26.4 33.4513 26.4 32.9933C26.7852 33.3182 27.1442 33.673 27.4736 34.0544C27.8832 34.5225 28.2469 35.0289 28.5596 35.5666C28.9879 36.2867 29.2906 37.0742 29.455 37.8957L26.1976 34.3448ZM37.4784 42.5333H32.1361C32.4108 41.7734 32.2366 40.9238 31.6851 40.3333L30.9466 39.5266C31.0915 38.299 30.8935 37.0552 30.3746 35.9333H38.2286L37.4784 42.5333ZM38.3951 34.4666H29.5951C29.2941 33.9836 28.9568 33.5242 28.586 33.0923C27.8643 32.2546 27.0171 31.534 26.0743 30.956C25.6434 29.5974 24.931 28.3447 23.9836 27.2798C23.7636 27.0305 23.5436 26.798 23.3126 26.5743L22.7333 20.4635C22.7035 20.1509 22.4779 19.892 22.1723 19.8197L21.5226 19.6657L21.3686 18.3332H40.2292L38.3951 34.4666ZM40.3956 16.8666H21.2021L20.6213 11.7333H40.9786L40.3956 16.8666ZM42.5333 10.2666H19.0666V8.79989C19.0666 8.39487 19.3949 8.06658 19.8 8.06658H41.7999C42.205 8.06658 42.5333 8.39487 42.5333 8.79989V10.2666Z"/>
<path d="M31.1006 32.2667C31.1423 32.2667 31.1834 32.2608 31.2245 32.2594C31.2355 32.2594 31.2465 32.2667 31.2575 32.2667C31.2943 32.2644 31.3308 32.2593 31.3667 32.2513C32.5147 32.1738 33.5724 31.6017 34.2655 30.6834C35.1895 29.3853 35.4536 27.7299 34.9798 26.2087C34.8778 25.8288 34.7847 25.4563 34.6945 25.0962C34.1225 22.8031 33.5762 20.6404 31.2596 20.543C31.2362 20.543 31.2142 20.5386 31.1907 20.5386C31.1672 20.5386 31.1328 20.5334 31.1005 20.5334C28.5089 20.5334 26.3998 23.1654 26.3998 26.4001C26.3998 29.6349 28.5089 32.2667 31.1006 32.2667ZM31.6682 22.11C32.4264 22.4077 32.7601 23.4014 33.2719 25.451C33.3636 25.8177 33.4589 26.202 33.5652 26.5914C33.9163 27.6723 33.7448 28.8549 33.101 29.7916C32.8673 30.0981 32.5682 30.3486 32.2254 30.5249C32.2006 29.2643 31.9524 28.0181 31.4921 26.8443C31.4188 26.6155 31.3454 26.3947 31.2809 26.1843C30.8542 24.7962 31.3542 22.9973 31.6682 22.11ZM30.0922 22.22C29.615 23.6363 29.5416 25.1577 29.8802 26.6134C29.9477 26.8334 30.0225 27.0614 30.1002 27.2983C30.4669 28.4174 30.9069 29.7704 30.7272 30.7662C29.1198 30.5154 27.8665 28.6542 27.8665 26.4C27.8666 24.453 28.8016 22.8 30.0922 22.22Z"/>
<path d="M3.88139 38.563L3.36293 39.0815C3.17232 39.2657 3.09584 39.5383 3.16296 39.7947C3.23007 40.0511 3.43031 40.2514 3.68666 40.3184C3.9431 40.3855 4.21569 40.309 4.39985 40.1184L4.91831 39.6C5.19624 39.3122 5.19228 38.8548 4.90938 38.572C4.62656 38.2891 4.16911 38.2851 3.88139 38.563Z"/>
<path d="M10.8929 33.6264C11.1794 33.3399 11.1794 32.8753 10.8929 32.5887C10.6064 32.3021 10.1418 32.3021 9.85518 32.5887L9.33672 33.1071C9.15135 33.2923 9.07891 33.5624 9.14663 33.8155C9.21434 34.0687 9.412 34.2664 9.66509 34.3343C9.91817 34.4022 10.1883 34.3299 10.3736 34.1447L10.8929 33.6264Z"/>
<path d="M4.39994 31.7482L3.88148 32.2667C3.69087 32.4509 3.61439 32.7234 3.6815 32.9799C3.74862 33.2362 3.94885 33.4365 4.20521 33.5036C4.46164 33.5707 4.73424 33.4942 4.9184 33.3036L5.43686 32.7851C5.71478 32.4974 5.71083 32.04 5.42793 31.7572C5.1451 31.4743 4.68766 31.4703 4.39994 31.7482Z"/>
<path d="M4.39994 26.6149L3.88148 27.1333C3.69087 27.3175 3.61439 27.5901 3.6815 27.8465C3.74862 28.1029 3.94885 28.3031 4.20521 28.3702C4.46164 28.4373 4.73424 28.3609 4.9184 28.1702L5.43686 27.6518C5.71478 27.3641 5.71083 26.9066 5.42793 26.6238C5.1451 26.341 4.68766 26.337 4.39994 26.6149Z"/>
<path d="M11 38.563L10.4815 39.0815C10.2909 39.2657 10.2144 39.5383 10.2816 39.7947C10.3487 40.0511 10.5489 40.2514 10.8053 40.3184C11.0617 40.3855 11.3343 40.309 11.5185 40.1184L12.0369 39.6C12.3148 39.3122 12.3109 38.8548 12.028 38.572C11.7452 38.2891 11.2877 38.2851 11 38.563Z"/>
<path d="M16.3481 38.5631L15.8297 39.0816C15.6391 39.2658 15.5626 39.5384 15.6297 39.7948C15.6968 40.0512 15.897 40.2515 16.1534 40.3185C16.4098 40.3856 16.6824 40.3091 16.8666 40.1185L17.385 39.6001C17.663 39.3123 17.659 38.8549 17.3761 38.5721C17.0932 38.2893 16.6358 38.2852 16.3481 38.5631Z"/>
</svg>

<svg width="44" height="44" xmlns="http://www.w3.org/2000/svg"><path d="M41.8 6.6h-1.467V5.133a2.2 2.2 0 00-2.2-2.2h-1.747L35.326.811A1.457 1.457 0 0034.012 0H33c-.81 0-1.467.657-1.467 1.467v1.466h-8.066a2.2 2.2 0 00-2.2 2.2V6.6H19.8a2.2 2.2 0 00-2.2 2.2v1.467c0 .81.657 1.466 1.467 1.466h.077l.858 7.577-3.533-.83a11.096 11.096 0 00-.576-.813L14.646 12.3a.733.733 0 00-.713-.568H9.72C7.73 9.981 5.382 9.19 3.61 9.711L2.532 8.537a1.448 1.448 0 00-1.605-.366c-.56.216-.93.755-.928 1.355v32.289A2.188 2.188 0 002.185 44h35.948c.373 0 .686-.28.728-.65l3.593-31.617h.08c.81 0 1.466-.657 1.466-1.466V8.8a2.2 2.2 0 00-2.2-2.2zM33 1.467h1.013l.734 1.466H33V1.467zM22.733 5.133c0-.405.329-.733.734-.733h14.666c.405 0 .734.328.734.733V6.6H22.733V5.133zm-2.053 15.84l.046.009.593.14.397 4.162a6.758 6.758 0 00-3.94-1.242 6.28 6.28 0 00-.411-3.848l3.315.78zm1.433 6.487l.01.008c.265.245.517.505.755.778a8.685 8.685 0 011.876 3.388c.124.437.188.89.19 1.344l-6.849-7.47c1.523.17 2.942.86 4.018 1.952zm-7.728-9.32v-.002c1.583 1.819 2.32 4.003 1.97 5.472l-7.463-8.137c1.505-.336 3.795.721 5.493 2.667zm-1.038-4.94l.586 2.497a9.342 9.342 0 00-1.913-1.154 11.558 11.558 0 00-.928-1.343h2.255zm-3.687.546h.003c.061.07.11.146.17.22a3.99 3.99 0 00-2.012.338l-3.015-3.288c1.474.021 3.398 1.058 4.854 2.73zm21.077 28.356a.716.716 0 01-.656.431H2.185a.719.719 0 01-.718-.718L1.453 9.533l14.72 16.048v.004l8.644 9.424.01.011 4.741 5.172c.017.022.034.044.053.065l.984 1.072a.716.716 0 01.132.773zm-4.54-7.757a4.59 4.59 0 00.203-1.352c.385.325.744.68 1.074 1.061.41.468.773.975 1.086 1.513.428.72.73 1.507.895 2.329l-3.257-3.551zm11.281 8.188h-5.342c.275-.76.1-1.61-.45-2.2l-.74-.806a6.691 6.691 0 00-.571-3.594h7.854l-.75 6.6zm.917-8.066h-8.8a11.218 11.218 0 00-1.009-1.375 10.69 10.69 0 00-2.512-2.136 10.145 10.145 0 00-2.09-3.676c-.22-.25-.44-.482-.671-.706l-.58-6.11a.733.733 0 00-.56-.644l-.65-.154-.154-1.333h18.86l-1.834 16.134zm2-17.6H21.203l-.58-5.134H40.98l-.583 5.134zm2.138-6.6H19.067V8.8c0-.405.328-.733.733-.733h22c.405 0 .733.328.733.733v1.467z"/><path d="M31.1 32.267c.042 0 .083-.006.124-.008.011 0 .023.008.034.008a.704.704 0 00.109-.016 3.966 3.966 0 002.899-1.568 5.1 5.1 0 00.714-4.474c-.102-.38-.195-.753-.285-1.113-.572-2.293-1.119-4.456-3.435-4.553-.024 0-.046-.004-.07-.004-.023 0-.057-.006-.09-.006-2.591 0-4.7 2.632-4.7 5.867s2.109 5.867 4.7 5.867zm.568-10.157c.758.298 1.092 1.291 1.604 3.341.092.367.187.751.293 1.14a3.656 3.656 0 01-.464 3.2 2.592 2.592 0 01-.876.734 10.656 10.656 0 00-.733-3.68c-.073-.23-.147-.45-.211-.66-.427-1.389.073-3.188.387-4.075zm-1.576.11a8.049 8.049 0 00-.212 4.393c.068.22.143.448.22.685.367 1.12.807 2.472.627 3.468-1.607-.25-2.86-2.112-2.86-4.366 0-1.947.935-3.6 2.225-4.18zM3.881 38.563l-.518.518A.733.733 0 104.4 40.118l.518-.518a.733.733 0 00-1.037-1.037zm7.012-4.937a.734.734 0 00-1.038-1.037l-.518.518a.733.733 0 101.037 1.038l.519-.519zM4.4 31.748l-.519.519a.733.733 0 101.037 1.037l.519-.519A.733.733 0 004.4 31.748zm0-5.133l-.519.518a.733.733 0 101.037 1.037l.519-.518A.733.733 0 004.4 26.615zM11 38.563l-.518.518a.733.733 0 101.037 1.037l.518-.518A.733.733 0 0011 38.563zm5.348 0l-.518.519a.734.734 0 101.037 1.036l.518-.518a.733.733 0 00-1.037-1.037z"/></svg>
